packages/tokens/icons/cartCrossArrows/size16Px.svg

<svg viewBox="0 0 16 16" fill="none" xmlns="http://www.w3.org/2000/svg" width="1em" height="1em"><path d="M1.5 1.5L3.5 1.5L4.5 8.5" stroke="currentColor" stroke-linecap="round" stroke-linejoin="round"/><path d="M4 3.5L12.2802 3.5C12.9112 3.5 13.3845 4.07732 13.2608 4.69612L12.6608 7.69612C12.5673 8.16354 12.1569 8.5 11.6802 8.5H4.5C3.94772 8.5 3.5 8.94772 3.5 9.5V9.5C3.5 10.0523 3.94772 10.5 4.5 10.5L11.8571 10.5" stroke="currentColor" stroke-linecap="round"/><circle cx="11" cy="13" r="0.5" stroke="currentColor"/><circle cx="5" cy="13" r="0.5" stroke="currentColor"/></svg>

<svg xmlns="http://www.w3.org/2000/svg" fill="none" viewBox="0 0 16 16" width="1em" height="1em"><path stroke="currentColor" stroke-linecap="round" stroke-linejoin="round" d="M1.5 1.5h2l1 7"/><path stroke="currentColor" stroke-linecap="round" d="M4 3.5h8.28a1 1 0 0 1 .98 1.196l-.6 3a1 1 0 0 1-.98.804H4.5a1 1 0 0 0-1 1v0a1 1 0 0 0 1 1h7.357"/><circle cx="11" cy="13" r=".5" stroke="currentColor"/><circle cx="5" cy="13" r=".5" stroke="currentColor"/></svg>
